X:1
T:G Major Jacob French, 1802
T:John Peck, 1773 66. 86.  
T:Mount Vernon
T:Transcribed from Harmony of Harmony, 1802
%%score [ 1 2 3 4 ]
L:1/8
Q:1/4=140
M:3/2
K:G
V:1 treble nm="Treble" snm="Tr."
V:2 treble nm="Counter" snm="C."
V:3 treble-8 nm="Tenor" snm="T."
V:4 bass nm="Bass" snm="B."
V:1
 B4 d2 B2 G2 B2 | c6 BA G2 B2 | cB A2 B8 | B4 d2 d2 dc B2 | A2 B2 A3 G dc BA | G2 A2 B8 |: %6
w: 1.~What if the saint must|die, And * lodge a-|mong * the tombs,|He need not mourn, * he|shall re- turn, Re- joi- * cing *|as he comes.|
"^Though death shall hold him down," z12 | z4 z2 B2 A2 B2 | A2 A2 A8 | A4 B2 A2 G2 d2 | %10
w: |With bands and|migh- ty bars,|Yet he shall rise a-|
 d2 c2 B2 c2 d2 d2 | e2 d2 d8 | B4 d2 B2 c2 d2 | c2 A2 Bc dc Be dc | B2 A2 B8 :| %15
w: bove the skies and sing a-|bove the stars.|Yet he shall rise a-|bove the skies * and * sing * a- *|bove the stars.|
V:2
 G4 G2 D2 [B,G]2 D2 | G6 F2 E2 E2 | E2 D2 D8 | D4 G2 G2 G2 G2 | F2 G2 F3 F G3 E | D2 D2 D8 |: %6
w: 2.~The re- sur- rec- tion|day Shall crown the|saints with joy,|When Christ shall come to|fetch them home, And all their|griefs de- stroy.|
 D4 G2 F2 E2 D2 | E6 G2 F2 E2 | D2 ^C2 D8 | D4 D2 D2 D2 D2 | GF EF G2 A2 B2 B2 | A2 A2 B8 | %12
w: Now they will sing for|joy, When they in|beau- ty rise!|Their songs a- round the|pla- * nets * sound, As they a-|scend the skies.|
 G4 G2 G2 G2 B2 | A2 D2 D2 A2 G3 E | D2 D2 D8 :| %15
w: Their songs a- round the|pla- nets sound, As they a-|scend the skies.|
V:3
 d4 B2 G2 d2 gf | e6 dc B2 G2 | AG F2 G8 | G4 B2 B2 BA G2 | d2 de d3 c Be dc | B2 A2 G8 |: %6
w: 3.~E- ter- nal joy in- *|deed With * them is|now * be- gun;|They walk in white, * and|shine more * bright, than the * me- *|ri- dian sun.|
"^Be  –  hold  the  bles–sed  Lamb;" z12 | z4 z2 Bc d2 G2 | F2 E2 D8 | D4 G2 A2 B2 A2 | %10
w: |Their * songs shall|ev- er sound:|The an- gels join, and|
 B2 c2 d2 ef g2 f2 | e2 f2 g8 | d4 Bc d2 e2 d2 | e2 f2 g2 fe dc BA | G2 F2 G8 :| %15
w: all com- bine to * spread their|an- thems round.|The an * gels join, and|all com- bine to * spread * their *|an- thems round.|
V:4
 G,4 G,2 G,2 G,2 G,2 | C,6 D,2 E,2 E,2 | C,2 D,2 G,,8 | G,,4 G,,2 G,,2 G,,A,, B,,C, | %4
 D,2 G,2 D,3 D, G,A, B,C | D2 D,2 [G,,G,]8 |: G,4 E,2 D,2 C,2 B,,2 | A,,6 G,,2 D,2 G,2 | %8
 A,2 A,,2 D,8 | D,4 B,,C, D,2 G,2 F,2 | G,2 A,2 B,2 A,2 G,2 B,2 | C2 D2 G,8 | G,4 G,2 G,2 C2 B,2 | %13
"^__________________________________________________\nEdited by B. C. Johnston, 2016\nWhole piece converted from cut time (2:2) to 3:2,\neliminating need for rests between lines." C2 D2 G,2 D,2 G,A, B,C | %14
 D2 D,2 [G,,G,]8 :| %15

